X:407
T: Maigaodi
N: C1442
O: China, Shanxi, Qitai
S: I, 335(2)]
R: Wuge, Yangge, Jinzhong yangge]
M: 2/4
L: 1/32
K: Eb
c4c2d2G4G2B2 | c4c2d2G4z4 | c4c4G2B2G2B2 | c4z12
z8c4c4 | B6c2d4f4 | c2d2c2B2G4z4
G4G2c2E6F2 | G4G2c2E6F2 | G4G4z4c2c2 | G4G4
z4g4 | e4d4c2d2c2G2 | =BB3BB3BB3BB3
z12d4 | c8G2B2G2F2 | G2G4C2C8

